!!!OTL: Sl&szlig;n chun carraig an éide, S. 97
!!!id: I0546
**kern
*clefG2
*k[b-e-a-]
*E-:
{8e-
=1
8e-
4e-
4g
4g
=2
4g
4b-
4b-
=3
4a-
4b-
4a-
=4
4g
4b-}
=5
{8a-
8a-
=6
4g
4e-
4e-
=7
4g
4b-
4a-
=8
4f
4e-
4e-
=9
4e-
4e-}
=10
{8g
8f
=11
4e-
4g
4g
=12
4g
4b-
4b-
=13
4a-
4b-
4a-
=14
4g
4b-}
4r
=15
{4g
4e-
4e-
=16
8g
8g
4b-
8a-
8f
=17
4f
4e-
4e-
=18
4e-
4e-}
4r
=19
{4e-
4dd-
4cc
=20
4ee-
4ff
4ee-
=21
4dd
4b-
8a-
8f
=22
4g}
2r
=23
{4e-
4dd-
4cc
=24
4ee-
8ff
8ee-
4dd
=25
4b-
4cc
4dd
=26
4ee-}
4r
=27
{8ff
8ddd
=28
4dd
4b-
4b-
=29
4g
4b-
4b-
=30
4a-
4cc
4a-
=31
4g
4b-}
=32
{8b-
8a-
=33
4g
4e-
4e-
=34
4g
4b-
4a-
=35
4f
4e-
4e-
=36
4g
4b-}
=37
{8b-
8a-
=38
4g
4e-
4e-
=39
4g
4b-
4a-
=40
4f
4e-
4e-
=41
4e-
4e-}
4r
==
*-
!!!minrhy: 8
!!!meters: 3/4 ]  ZZ[9
!!!cut: Sl&szlig;n chun carraig an éide, S. 97
!!!reg: Irland
!!!trd: O'SULLIVAN, Donal: Song of the Irish
!!!rhy1:   X_X_X_  X_X_X_  X_X_X_  X_X_
!!!rhy2: XX  X_X_X_  X_X_X_  X_X_X_  X_X_
!!!key: I0546  08 Eb 3/4 ]  ZZ[9
!!!mod: ACHTTONSKALA DUR ?]  AMBITUS[14
!!!kad: 51513+1551
!!!akz: 1343_3321_1343_3321_1+173_1+15+1_7343_3323_3321_
!!!fot: 'a__b__c__d__e__f__g__bw_bw_
!!!for: 'a__av_av_b__c__d__av_av_av_
!!!fok: '~a_Sd_Wa_Sd_Ma_$a_Vd_W__Sd_
!! PHRAS[GEMISCHTTAKTIG]
!!!fkt: Abschiedslied
!! IRISCHE V
!! PR[30] 2K[0] 2G[14] 3K[9] 3G[5] 4A[4] 4Ü[0] 5A[0] 6K[0] 6G[0]
!! 7K[0] 7G[0] 8A[0] MEHR[0] SI[33] ABS[116] SR[14] SP[19]
!! ST[22] 2k[4] 2g[14] 3k[9] 3g[9] 4d[0] 4ü[0] 5d[0] 6k[0] 6g[0]
!! 7k[0] 7g[0] 8d[0] mehr[0] si[37] dm[-4] sr[18] sp[19]
!! 1F[14] 2F[69] 3F[15] 4F[0] LF[0] 2P[0] 3P[3] 4P[0] TRI[0] DF[4] AB[117]
!! TF[0] U3K[0] U3[0] U4[0] U4Ü[0] U5[8] U6K[0] U6[9] U7K[0] U7[0]
!! N1[32] N2K[0] N2[12] N3K[0] N3[20] N4[12] N4Ü[0] N5[7] N6K[0] N6[2]
!!!n7k: 0] N7[0] O1[0] O2K[0] O2[0] O3K[0] O3[0] HÖ[0
!!!RNB: symbol: &szlig; = sz ligature (UTF-8: ÃŸ)
